svgs/light/envelope-open.svg

<svg xmlns="http://www.w3.org/2000/svg" viewBox="0 0 512 512"><!--! Font Awesome Pro 6.0.0-alpha3 by @fontawesome - https://fontawesome.com License - https://fontawesome.com/license (Commercial License) --><path d="M493.6 163c-24.88-19.62-45.5-35.37-164.3-121.6C312.7 29.21 279.7 0 256.4 0H255.6C232.3 0 199.3 29.21 182.6 41.38C63.88 127.6 43.25 143.4 18.38 163C6.75 172 0 186 0 200.8v263.2C0 490.5 21.49 512 48 512h416c26.51 0 48-21.49 48-47.1V200.8C512 186 505.3 172 493.6 163zM480 464c0 8.822-7.178 16-16 16h-416C39.18 480 32 472.8 32 464V200.8c0-4.902 2.23-9.555 6.195-12.63C61.59 169.7 80.71 154.1 201.5 67.21c2.98-2.178 6.451-4.861 10.28-7.826c9.365-7.254 34.18-26.48 44.62-27.37c9.686 .9551 34.44 20.13 43.79 27.37c3.828 2.965 7.299 5.648 10.36 7.887c120.7 87.68 139.8 102.4 163.5 121C477.8 191.2 480 195.8 480 200.8V464zM422.5 259.1l-132.8 97.72c-19.78 14.62-47.64 14.62-67.45 0L89.48 259.1C82.38 253.8 72.33 255.4 67.11 262.5C61.88 269.6 63.41 279.7 70.52 284.9l132.8 97.72C218.7 393.1 236.9 399.1 256 399.1s37.3-6.023 52.7-17.4l132.8-97.72c7.109-5.219 8.641-15.25 3.406-22.34C439.6 255.4 429.7 253.8 422.5 259.1z"/></svg>

<svg xmlns="http://www.w3.org/2000/svg" viewBox="0 0 512 512"><!-- Font Awesome Pro 6.0.0-alpha2 by @fontawesome - https://fontawesome.com License - https://fontawesome.com/license (Commercial License) --><path d="M493.625 163.002C468.75 143.377 448.125 127.629 329.375 41.379C312.73 29.207 279.672 0 256.441 0C256.293 0 256.145 0.002 256 0.004C255.852 0.002 255.707 0 255.559 0C232.328 0 199.27 29.207 182.625 41.379C63.875 127.629 43.25 143.377 18.375 163.002C6.75 172.002 0 186.004 0 200.752V464C0 490.51 21.492 512 48 512H464C490.508 512 512 490.51 512 464V200.752C512 186.004 505.25 172.002 493.625 163.002ZM480 464C480 472.822 472.822 480 464 480H48C39.178 480 32 472.822 32 464V200.752C32 195.85 34.23 191.197 38.195 188.125C61.594 169.664 80.711 154.951 201.514 67.209C204.494 65.031 207.965 62.348 211.795 59.383C221.16 52.129 245.979 32.904 256.416 32.01C266.102 32.965 290.855 52.141 300.207 59.383C304.035 62.348 307.506 65.031 310.57 67.27C431.289 154.951 450.406 169.664 474.035 188.305C477.77 191.197 480 195.85 480 200.752V464ZM422.516 259.125L289.719 356.844C269.938 371.469 242.078 371.469 222.266 356.844L89.484 259.125C82.375 253.812 72.328 255.375 67.109 262.531C61.875 269.625 63.406 279.656 70.516 284.875L203.281 382.594C218.703 393.969 236.938 400 256 400S293.297 393.969 308.703 382.594L441.484 284.875C448.594 279.656 450.125 269.625 444.891 262.531C439.641 255.375 429.656 253.812 422.516 259.125Z"/></svg>
